!!!SOCIAL_FUNCTION:	miscellaneous songs
!!!PDT:	1929
!!!OTL: No_166_I_Met_a_Mexican.krn
!!!REG: Southwest
!!!LANG: Non-Tone
!!!LING_GROUP: Uto-Aztecan
**kern
*staff1
*clefF4
*k[f#c#g#d#a#]
*M3/8
8F#\L
8F#\J
=1
*M3/4
8c#\L
8c#\J
4c#\
4c#\
=2
2c#\
8d#\L
8c#\J
=3
8B\L
8G#\J
(8.G#\L
16D#\Jk)
4D#\
=4||
*M2/4
4D#\
8.r
16G#\
=5
4G#\
8G#\L
8G#\J
=6
8B\L
8B\J
8B\L
8B\J
=7
4G#\
8.G#\L
16G#\Jk
=8||
*M7/8
8G#\L
8D#\J
4D#\
8BB/
8r
8G#\
=9||
*M2/4
4G#\
8G#\L
8G#\J
=10
8B\L
8B\J
8B\L
8B\J
=11
4G#\
8.G#\L
16G#\Jk
=12||
*M7/8
8F#\L
8D#\J
4D#\
8BB/
8r
8D#\
=13
(4D#\
8F#\)
4F#\
4r
==
*-
